dist/img/Vector111.svg

<svg width="448" height="702" viewBox="0 0 448 702" fill="none" xmlns="http://www.w3.org/2000/svg">
<mask id="path-1-inside-1_298_41" fill="white">
<path d="M903.539 352.342C906.017 349.269 908.441 346.214 910.812 343.177C953.849 288.052 977.607 241.526 981.424 204.888C985.071 169.886 970.149 144.936 937.075 130.734C834.928 81.0289 741.226 51.7082 672.807 30.2981C645.676 21.8085 622.245 14.4769 603.671 7.56875C571.009 -4.51732 520.163 -0.105037 464.17 19.6728C407.003 39.8657 353.116 73.4074 316.327 111.698C245.557 189.307 125.799 271.463 44.4736 314.96C20.0107 328.079 5.19509 349.501 1.62722 376.912C-4.60989 424.819 24.1373 485.517 76.6497 535.317L76.6468 535.314C129.549 585.996 181.882 634.075 240.406 665.294C271.959 682.126 302.853 692.877 334.855 698.161C370.405 704.031 406.363 703.045 444.784 695.146C479.244 688.639 528.371 665.724 586.843 628.88C642.505 593.806 704.254 547.324 760.715 497.997C817.106 448.73 866.256 398.587 903.539 352.342ZM19.9465 337.182C26.6032 328.925 35.0977 321.97 45.3108 316.494C126.762 272.929 246.718 190.632 317.61 112.887C354.204 74.8019 407.845 41.4183 464.764 21.3124C520.377 1.66869 570.789 -2.74628 603.072 9.1993C621.688 16.1215 645.139 23.4598 672.294 31.9573C740.659 53.3509 834.289 82.6489 936.355 132.313C968.679 146.194 983.245 170.542 979.687 204.697C975.903 241.007 952.266 287.237 909.431 342.103C871.429 390.75 819.616 444.216 759.558 496.685C703.162 545.956 641.49 592.38 585.902 627.408C527.613 664.136 478.693 686.97 444.434 693.441C406.213 701.298 370.464 702.281 335.13 696.446C303.322 691.194 272.605 680.503 241.224 663.763C182.897 632.649 130.665 584.659 77.8554 534.065L77.8524 534.062C25.7392 484.64 -2.8039 424.514 3.36261 377.148C5.3644 361.755 10.9919 348.289 19.9465 337.182Z"/>
</mask>
<path d="M903.539 352.342L901.973 351.085L901.973 351.085L903.539 352.342ZM910.812 343.177L909.226 341.944L909.226 341.943L910.812 343.177ZM981.424 204.888L983.417 205.109L983.417 205.109L981.424 204.888ZM937.075 130.734L936.293 132.566L936.249 132.547L936.206 132.526L937.075 130.734ZM672.807 30.2981L673.394 28.3939L673.394 28.3939L672.807 30.2981ZM603.671 7.56875L604.356 5.69795L604.359 5.69912L603.671 7.56875ZM464.17 19.6728L463.487 17.7907L463.487 17.7907L464.17 19.6728ZM316.327 111.698L314.84 110.349L314.857 110.33L314.875 110.311L316.327 111.698ZM44.4736 314.96L43.5136 313.201L43.5155 313.2L44.4736 314.96ZM1.62724 376.912L3.61431 377.183L3.61432 377.184L1.62724 376.912ZM76.6497 535.317L78.1683 534.026L75.2741 536.758L76.6497 535.317ZM76.6468 535.314L75.1283 536.604L78.0299 533.88L76.6468 535.314ZM240.406 665.294L239.471 667.052L240.406 665.294ZM334.855 698.161L334.542 700.131L334.542 700.131L334.855 698.161ZM444.784 695.146L444.365 693.191L444.38 693.188L444.396 693.185L444.784 695.146ZM586.843 628.88L587.924 630.569L586.843 628.88ZM760.715 497.997L762.042 499.502L760.715 497.997ZM19.9465 337.182L21.5124 338.439L21.5124 338.439L19.9465 337.182ZM45.3108 316.494L44.3508 314.734L44.3527 314.733L45.3108 316.494ZM317.61 112.887L316.122 111.539L316.139 111.52L316.157 111.501L317.61 112.887ZM464.764 21.3124L464.082 19.4302L464.082 19.4302L464.764 21.3124ZM603.072 9.1993L603.757 7.3285L603.76 7.32962L603.072 9.1993ZM672.294 31.9573L672.881 30.0531L672.881 30.0531L672.294 31.9573ZM936.355 132.313L935.573 134.145L935.529 134.126L935.486 134.105L936.355 132.313ZM979.687 204.697L981.68 204.918L981.68 204.918L979.687 204.697ZM909.431 342.103L911.016 343.336L911.015 343.337L909.431 342.103ZM759.558 496.685L758.23 495.18L758.23 495.18L759.558 496.685ZM585.902 627.408L586.982 629.097L586.982 629.097L585.902 627.408ZM444.434 693.441L444.014 691.485L444.03 691.482L444.046 691.479L444.434 693.441ZM335.13 696.446L334.817 698.416L334.817 698.416L335.13 696.446ZM241.224 663.763L242.159 662.004L242.159 662.004L241.224 663.763ZM77.8554 534.065L76.4723 535.499L76.3965 535.426L76.3287 535.346L77.8554 534.065ZM77.8524 534.062L79.228 532.621L79.308 532.696L79.3791 532.78L77.8524 534.062ZM3.36263 377.148L5.34977 377.419L5.34971 377.419L3.36263 377.148ZM901.973 351.085C904.445 348.02 906.862 344.973 909.226 341.944L912.397 344.409C910.02 347.456 907.589 350.519 905.104 353.6L901.973 351.085ZM909.226 341.943C952.209 286.889 975.674 240.731 979.431 204.667L983.417 205.109C979.54 242.321 955.49 289.215 912.397 344.41L909.226 341.943ZM979.431 204.667C981.22 187.498 978.442 172.963 971.301 161.023C964.158 149.08 952.535 139.54 936.293 132.566L937.856 128.902C954.689 136.13 967.064 146.166 974.739 158.999C982.416 171.835 985.275 187.276 983.417 205.109L979.431 204.667ZM936.206 132.526C834.209 82.8943 740.637 53.6117 672.22 32.2023L673.394 28.3939C741.815 49.8047 835.646 79.1636 937.943 128.941L936.206 132.526ZM672.22 32.2023C645.107 23.7184 621.618 16.3693 602.983 9.43838L604.359 5.69912C622.872 12.5845 646.245 19.8986 673.394 28.3939L672.22 32.2023ZM602.986 9.43955C570.986 -2.40155 520.69 1.83173 464.852 21.555L463.487 17.7907C519.635 -2.0418 571.032 -6.63309 604.356 5.69795L602.986 9.43955ZM464.852 21.555C407.937 41.659 354.327 75.0456 317.78 113.084L314.875 110.311C351.906 71.7692 406.069 38.0724 463.487 17.7907L464.852 21.555ZM317.815 113.046C246.841 190.878 126.875 273.16 45.4318 316.721L43.5155 313.2C124.723 269.765 244.272 187.736 314.84 110.349L317.815 113.046ZM45.4337 316.72C21.5312 329.538 7.09945 350.409 3.61431 377.183L-0.359888 376.64C3.29074 348.594 18.4902 326.62 43.5136 313.201L45.4337 316.72ZM3.61432 377.184C-2.50571 424.191 25.7413 484.293 78.0254 533.876L75.2741 536.758C22.5332 486.741 -6.71405 425.446 -0.359839 376.64L3.61432 377.184ZM75.1312 536.608L75.1283 536.604L78.1654 534.023L78.1683 534.026L75.1312 536.608ZM78.0299 533.88C130.948 584.578 183.096 632.465 241.341 663.536L239.471 667.052C180.667 635.684 128.15 587.414 75.2637 536.748L78.0299 533.88ZM241.341 663.536C272.72 680.274 303.405 690.947 335.168 696.192L334.542 700.131C302.302 694.807 271.199 683.977 239.471 667.052L241.341 663.536ZM335.168 696.192C370.453 702.018 406.162 701.045 444.365 693.191L445.203 697.101C406.564 705.046 370.356 706.044 334.542 700.131L335.168 696.192ZM444.396 693.185C478.471 686.75 527.337 664.005 585.763 627.19L587.924 630.569C529.406 667.442 480.016 690.528 445.171 697.108L444.396 693.185ZM585.763 627.19C641.326 592.179 702.993 545.76 759.387 496.492L762.042 499.502C705.514 548.888 643.683 595.434 587.924 630.569L585.763 627.19ZM759.387 496.492C815.713 447.283 864.778 397.221 901.973 351.085L905.104 353.6C867.734 399.953 818.499 450.178 762.042 499.502L759.387 496.492ZM18.3805 335.925C25.2157 327.446 33.9218 320.327 44.3508 314.734L46.2709 318.253C36.2736 323.614 27.9907 330.403 21.5124 338.439L18.3805 335.925ZM44.3527 314.733C125.686 271.232 245.433 189.061 316.122 111.539L319.097 114.236C248.003 192.203 127.838 274.626 46.269 318.254L44.3527 314.733ZM316.157 111.501C352.994 73.1635 406.911 39.6249 464.082 19.4302L465.447 23.1945C408.778 43.2117 355.414 76.4402 319.062 114.274L316.157 111.501ZM464.082 19.4302C519.847 -0.267118 570.81 -4.86264 603.757 7.3285L602.387 11.0701C570.768 -0.629931 520.908 3.6045 465.447 23.1945L464.082 19.4302ZM603.76 7.32962C622.315 14.2291 645.707 21.5499 672.881 30.0531L671.707 33.8615C644.57 25.3697 621.061 18.0139 602.384 11.069L603.76 7.32962ZM672.881 30.0531C741.248 51.4474 835.008 80.7835 937.223 130.52L935.486 134.105C833.571 84.5143 740.07 55.2544 671.707 33.8615L672.881 30.0531ZM937.136 130.481C953.593 137.548 965.692 147.353 973.196 159.89C980.701 172.429 983.494 187.508 981.68 204.918L977.694 204.476C979.438 187.73 976.727 173.559 969.758 161.915C962.787 150.269 951.44 140.959 935.573 134.145L937.136 130.481ZM981.68 204.918C977.836 241.804 953.905 288.401 911.016 343.336L907.845 340.87C950.627 286.073 973.97 240.211 977.694 204.476L981.68 204.918ZM911.015 343.337C872.919 392.105 821.012 445.661 760.885 498.191L758.23 495.18C818.22 442.771 869.94 389.394 907.846 340.869L911.015 343.337ZM760.885 498.191C704.423 547.52 642.668 594.008 586.982 629.097L584.821 625.718C640.312 590.753 701.902 544.392 758.23 495.18L760.885 498.191ZM586.982 629.097C528.648 665.854 479.466 688.859 444.821 695.402L444.046 691.479C477.92 685.081 526.578 662.418 584.821 625.718L586.982 629.097ZM444.853 695.396C406.414 703.298 370.416 704.294 334.817 698.416L335.443 694.477C370.512 700.268 406.012 699.298 444.014 691.485L444.853 695.396ZM334.817 698.416C302.771 693.124 271.844 682.355 240.289 665.521L242.159 662.004C273.365 678.651 303.873 689.264 335.443 694.477L334.817 698.416ZM240.289 665.521C181.683 634.258 129.266 586.077 76.4723 535.499L79.2384 532.631C132.065 583.241 184.112 631.039 242.159 662.004L240.289 665.521ZM76.3287 535.346L76.3257 535.343L79.3791 532.78L79.3821 532.784L76.3287 535.346ZM76.4768 535.503C24.1375 485.866 -4.90835 425.144 1.37555 376.876L5.34971 377.419C-0.699463 423.884 27.3408 483.413 79.228 532.621L76.4768 535.503ZM1.37549 376.876C3.42079 361.149 9.18105 347.336 18.3805 335.925L21.5124 338.439C12.8028 349.243 7.30801 362.361 5.34977 377.419L1.37549 376.876Z" fill="url(#paint0_linear_298_41)" mask="url(#path-1-inside-1_298_41)"/>
<defs>
<linearGradient id="paint0_linear_298_41" x1="470.5" y1="18.5" x2="506.931" y2="680.904" gradientUnits="userSpaceOnUse">
<stop stop-color="#FF59F8" stop-opacity="0"/>
<stop offset="0.345487" stop-color="#AE72FF"/>
<stop offset="0.491082" stop-color="#90E9ED"/>
<stop offset="0.683074" stop-color="#5CD167"/>
<stop offset="1" stop-color="#FFEE00" stop-opacity="0"/>
</linearGradient>
</defs>
</svg>

<svg xmlns="http://www.w3.org/2000/svg" width="448" height="702" fill="none"><mask id="b" fill="#fff"><path d="M903.539 352.342a742.712 742.712 0 0 0 7.273-9.165c43.037-55.125 66.795-101.651 70.612-138.289 3.647-35.002-11.275-59.952-44.349-74.154C834.928 81.029 741.226 51.708 672.807 30.298c-27.131-8.49-50.562-15.821-69.136-22.73C571.009-4.516 520.163-.104 464.17 19.674c-57.167 20.193-111.054 53.734-147.843 92.025-70.77 77.609-190.528 159.765-271.853 203.262-24.463 13.119-39.279 34.541-42.847 61.952-6.237 47.907 22.51 108.605 75.023 158.405l-.003-.003c52.902 50.682 105.235 98.761 163.759 129.98 31.553 16.832 62.447 27.583 94.449 32.867 35.55 5.87 71.508 4.884 109.929-3.015 34.46-6.507 83.587-29.422 142.059-66.266 55.662-35.074 117.411-81.556 173.872-130.883 56.391-49.267 105.541-99.41 142.824-145.655Zm-883.592-15.16c6.656-8.257 15.15-15.212 25.364-20.688 81.451-43.565 201.407-125.862 272.299-203.607 36.594-38.085 90.235-71.469 147.154-91.575C520.377 1.67 570.789-2.746 603.072 9.2c18.616 6.923 42.067 14.26 69.222 22.758 68.365 21.394 161.995 50.692 264.061 100.356 32.324 13.881 46.89 38.229 43.332 72.384-3.784 36.31-27.421 82.54-70.256 137.406-38.002 48.647-89.815 102.113-149.873 154.582-56.396 49.271-118.068 95.695-173.656 130.723-58.289 36.728-107.209 59.562-141.468 66.033-38.221 7.857-73.97 8.84-109.304 3.005-31.808-5.252-62.525-15.943-93.906-32.683-58.327-31.114-110.559-79.104-163.369-129.698l-.003-.003C25.74 484.64-2.804 424.514 3.362 377.148c2.002-15.393 7.63-28.859 16.584-39.966Z"/></mask><path fill="url(#a)" d="m903.539 352.342-1.566-1.257 1.566 1.257Zm7.273-9.165-1.586-1.233v-.001l1.586 1.234Zm70.612-138.289 1.993.221-1.993-.221Zm-44.349-74.154-.782 1.832-.044-.019-.043-.021.869-1.792ZM672.807 30.298l.587-1.904-.587 1.904Zm-69.136-22.73.685-1.87.003.001-.688 1.87ZM464.17 19.674l-.683-1.882.683 1.882Zm-147.843 92.025-1.487-1.349.017-.019.018-.019 1.452 1.387ZM44.474 314.96l-.96-1.759.002-.001.958 1.76ZM1.627 376.912l1.987.271v.001l-1.987-.272ZM76.65 535.317l1.518-1.291-2.894 2.732 1.376-1.441Zm-.003-.003-1.519 1.29 2.902-2.724-1.383 1.434Zm163.759 129.98-.935 1.758.935-1.758Zm94.449 32.867-.313 1.97.313-1.97Zm109.929-3.015-.419-1.955.015-.003.016-.003.388 1.961Zm142.059-66.266 1.081 1.689-1.081-1.689Zm173.872-130.883 1.327 1.505-1.327-1.505ZM19.946 337.182l1.566 1.257-1.566-1.257Zm25.365-20.688-.96-1.76.002-.001.958 1.761ZM317.61 112.887l-1.488-1.348.017-.019.018-.019 1.453 1.386Zm147.154-91.575-.682-1.882.682 1.882ZM603.072 9.2l.685-1.87h.003l-.688 1.87Zm69.222 22.758.587-1.904-.587 1.904Zm264.061 100.356-.782 1.832-.044-.019-.043-.021.869-1.792Zm43.332 72.384 1.993.221-1.993-.221Zm-70.256 137.406 1.585 1.233-.001.001-1.584-1.234ZM759.558 496.685l-1.328-1.505 1.328 1.505ZM585.902 627.408l1.08 1.689-1.08-1.689Zm-141.468 66.033-.42-1.956.016-.003.016-.003.388 1.962Zm-109.304 3.005-.313 1.97.313-1.97Zm-93.906-32.683.935-1.759-.935 1.759ZM77.855 534.065l-1.383 1.434-.075-.073-.068-.08 1.526-1.281Zm-.003-.003 1.376-1.441.08.075.071.084-1.527 1.282ZM3.362 377.148l1.988.271-1.987-.271Zm898.611-26.063a729.38 729.38 0 0 0 7.253-9.141l3.171 2.465a722.989 722.989 0 0 1-7.293 9.191l-3.131-2.515Zm7.253-9.142c42.983-55.054 66.448-101.212 70.205-137.276l3.986.442c-3.877 37.212-27.927 84.106-71.02 139.301l-3.171-2.467Zm70.205-137.276c1.789-17.169-.989-31.704-8.13-43.644-7.143-11.943-18.766-21.483-35.008-28.457l1.563-3.664c16.833 7.228 29.208 17.264 36.883 30.097 7.677 12.836 10.536 28.277 8.678 46.11l-3.986-.442Zm-43.225-72.141C834.209 82.894 740.637 53.612 672.22 32.202l1.174-3.808c68.421 21.41 162.252 50.77 264.549 100.547l-1.737 3.585ZM672.22 32.202c-27.113-8.484-50.602-15.833-69.237-22.764l1.376-3.739c18.513 6.886 41.886 14.2 69.035 22.695l-1.174 3.808ZM602.986 9.44c-32-11.842-82.296-7.608-138.134 12.115l-1.365-3.764C519.635-2.042 571.032-6.633 604.356 5.698l-1.37 3.742ZM464.852 21.555c-56.915 20.104-110.525 53.49-147.072 91.529l-2.905-2.773c37.031-38.542 91.194-72.239 148.612-92.52l1.365 3.764Zm-147.037 91.491c-70.974 77.832-190.94 160.114-272.383 203.675l-1.916-3.521c81.207-43.435 200.756-125.464 271.324-202.851l2.975 2.697ZM45.434 316.72c-23.903 12.818-38.335 33.689-41.82 60.463l-3.974-.543c3.65-28.046 18.85-50.02 43.874-63.439l1.92 3.519Zm-41.82 60.464c-6.12 47.007 22.127 107.109 74.411 156.692l-2.75 2.882C22.532 486.741-6.716 425.446-.36 376.64l3.974.544Zm71.517 159.424-.003-.004 3.037-2.581.003.003-3.037 2.582Zm2.899-2.728c52.918 50.698 105.066 98.585 163.311 129.656l-1.87 3.516c-58.804-31.368-111.321-79.638-164.207-130.304l2.766-2.868ZM241.34 663.536c31.379 16.738 62.064 27.411 93.827 32.656l-.626 3.939c-32.24-5.324-63.343-16.154-95.071-33.079l1.87-3.516Zm93.827 32.656c35.285 5.826 70.994 4.853 109.197-3.001l.838 3.91c-38.639 7.945-74.847 8.943-110.661 3.03l.626-3.939Zm109.228-3.007c34.075-6.435 82.941-29.18 141.367-65.995l2.161 3.379c-58.518 36.873-107.908 59.959-142.753 66.539l-.775-3.923Zm141.367-65.995c55.563-35.011 117.23-81.43 173.624-130.698l2.655 3.01c-56.528 49.386-118.359 95.932-174.118 131.067l-2.161-3.379Zm173.624-130.698c56.326-49.209 105.391-99.271 142.586-145.407l3.131 2.515c-37.37 46.353-86.605 96.578-143.062 145.902l-2.655-3.01ZM18.381 335.925c6.835-8.479 15.54-15.598 25.97-21.191l1.92 3.519c-9.997 5.361-18.28 12.15-24.759 20.186l-3.131-2.514Zm25.972-21.192c81.333-43.501 201.08-125.672 271.769-203.194l2.975 2.697c-71.094 77.967-191.259 160.39-272.828 204.018l-1.916-3.521Zm271.804-203.232c36.837-38.338 90.754-71.876 147.925-92.07l1.365 3.764c-56.669 20.017-110.033 53.245-146.385 91.079l-2.905-2.773Zm147.925-92.07C519.847-.268 570.81-4.864 603.757 7.327l-1.37 3.742c-31.619-11.7-81.479-7.466-136.94 12.125l-1.365-3.765ZM603.76 7.33c18.555 6.9 41.947 14.22 69.121 22.723l-1.174 3.808c-27.137-8.491-50.646-15.847-69.323-22.792l1.376-3.74Zm69.121 22.723c68.367 21.394 162.127 50.73 264.342 100.467l-1.737 3.585C833.571 84.515 740.07 55.255 671.707 33.862l1.174-3.809Zm264.255 100.428c16.457 7.067 28.556 16.872 36.06 29.409 7.505 12.539 10.298 27.618 8.484 45.028l-3.986-.442c1.744-16.746-.967-30.917-7.936-42.561-6.971-11.646-18.318-20.956-34.185-27.77l1.563-3.664Zm44.544 74.437c-3.844 36.886-27.775 83.483-70.664 138.418l-3.171-2.466c42.782-54.797 66.125-100.659 69.849-136.394l3.986.442Zm-70.665 138.419c-38.096 48.768-90.003 102.324-150.13 154.854l-2.655-3.011c59.99-52.409 111.71-105.786 149.616-154.311l3.169 2.468Zm-150.13 154.854c-56.462 49.329-118.217 95.817-173.903 130.906l-2.161-3.379c55.491-34.965 117.081-81.326 173.409-130.538l2.655 3.011ZM586.982 629.097c-58.334 36.757-107.516 59.762-142.161 66.305l-.775-3.923c33.874-6.398 82.532-29.061 140.775-65.761l2.161 3.379Zm-142.129 66.299c-38.439 7.902-74.437 8.898-110.036 3.02l.626-3.939c35.069 5.791 70.569 4.821 108.571-2.992l.839 3.911Zm-110.036 3.02c-32.046-5.292-62.973-16.061-94.528-32.895l1.87-3.517c31.206 16.647 61.714 27.26 93.284 32.473l-.626 3.939Zm-94.528-32.895c-58.606-31.263-111.023-79.444-163.817-130.022l2.766-2.868c52.827 50.61 104.874 98.408 162.921 129.373l-1.87 3.517ZM76.329 535.346l-.003-.003 3.053-2.563.003.004-3.053 2.562Zm.148.157C24.137 485.866-4.908 425.144 1.376 376.876l3.974.543C-.7 423.884 27.34 483.413 79.228 532.621l-2.751 2.882ZM1.375 376.876c2.046-15.727 7.806-29.54 17.006-40.951l3.131 2.514c-8.71 10.804-14.204 23.922-16.162 38.98l-3.975-.543Z" mask="url(#b)"/><defs><linearGradient id="a" x1="470.5" x2="506.931" y1="18.5" y2="680.904" gradientUnits="userSpaceOnUse"><stop stop-color="#FF59F8" stop-opacity="0"/><stop offset=".345" stop-color="#AE72FF"/><stop offset=".491" stop-color="#90E9ED"/><stop offset=".683" stop-color="#5CD167"/><stop offset="1" stop-color="#FE0" stop-opacity="0"/></linearGradient></defs></svg>
